app/dist/common/images/nocturne-acquisition.svg

<svg height="18" viewBox="0 0 18 18" width="18" xmlns="http://www.w3.org/2000/svg"><path d="m0 0h18v18h-18z" fill="#f0f3fa"/><path d="m7 5h-2v8h2v-4.48c0-1.56.9-2.52 2.5-2.52 1.28 0 1.5 1.48 1.5 2.13v4.87h2v-5.26c0-1.57-.8-2.74-3.2-2.74-1.92 0-2.67.78-2.8 1.17z"/></svg>

<!-- by TradingView --><svg width="18" height="18" viewBox="0 0 18 18" xmlns="http://www.w3.org/2000/svg"><path fill="#F0F3FA" d="M0 0h18v18H0z"/><path d="M7 5H5v8h2V8.52C7 6.96 7.9 6 9.5 6 10.78 6 11 7.48 11 8.13V13h2V7.74C13 6.17 12.2 5 9.8 5 7.88 5 7.13 5.78 7 6.17V5Z"/></svg>
